!!!COM: McCormick, Peter Dodds
!!!CDT: 1834-1916
!!!OTL: National Anthem, Australia ("Advance Australia Fair")
!!!ENC: Davis, Matthew J.
!!Vocal Line Only
**kern
*clefG2
*k[]
*C:
*M4/4
=1-
4g
=2
4cc
4gg
4ee
4gg
=3
4.cc
8cc
4cc
4ee
=4
4dd
4cc
4b
4cc
=5
2.dd
4g
=6
4cc
4g
4e
4c
=7
4.g
8g
4g
4ee
=8
4dd
4cc
4b
4a
=9
2.g
4g
=10
4.a
8b
4cc
4a
=11
4.g
8e
4e
4g
=12
4a
4cc
4ff
4ee
=13
2.dd
4g
=14
4.a
8b
4cc
4a
=15
4.g
8cc
4cc
(8dd
8dd)
=16
4.ee
8cc
4.dd
8b
=17
!Four beats are split between measures 17 and 18
2.cc
==18
4ee
!See previous comment
=19
4ff
4ee
4dd
4cc
=20
4b
4a
4g
4cc
=21
4.ee
8cc
4.dd
8b
=22
2.cc
==|!
*-
